X: 1
T: Leaving The Ferry
M: 6/8
L: 1/8
R: jig
K: Bmin
~B3 fBf|BdB AFA|~B3 f2 ^g|a=ga ecA|
~B3 fBf|Bd/2c/2B AFD|EB,E DA,D|1GFE FGA:|2GFE FED||
G,DG, EG,F|A,EA, FA,G|B,FB, GB,A|CEF GFE|
G,DG, ~G3|A,EA, A/2A/2GA|~B3 dcB|~c3 cAF:|
